images/social/spotify.svg

<svg xmlns="http://www.w3.org/2000/svg" width="219.76" height="219.7" viewBox="0 0 219.76 219.7"><defs><style>.a{fill:#fff;}</style></defs><title>spotify</title><path class="a" d="M90.49,1.79a109.9,109.9,0,0,1,75.92,202.48A107.9,107.9,0,0,1,111,219.78c-27.46.59-54.84-10.11-75-28.65A109.67,109.67,0,0,1,12.1,60.07C27.29,29.86,57.17,7.61,90.49,1.79M83.3,58.35c-14,.68-28.1,2.51-41.61,6.5a10.18,10.18,0,0,0-6.92,5.84,10.48,10.48,0,0,0,6.31,14.13c3.89,1.4,7.77-.56,11.54-1.41,14.82-3.65,30.16-4.8,45.38-4.62,24.45.75,49.34,4.7,71.4,15.72,4.18,2,8.37,5.71,13.34,4.23,6.27-1.22,9.82-8.87,7-14.53-2.45-5-8.26-6.62-12.77-9.17C147.93,61.31,115.16,57.18,83.3,58.35M78.4,96.47a146.18,146.18,0,0,0-31,5.75,8.47,8.47,0,0,0-6,8.77c0,5.22,5.7,9.42,10.69,7.9a132,132,0,0,1,25.9-5c26.33-2.23,53.54,1.95,77.28,13.84,4.66,2.19,9.39,7,14.91,4.35,6.22-2.44,6.88-12,1.1-15.29-27.65-16.65-60.91-22.71-92.86-20.36m-3.79,36.39A195.25,195.25,0,0,0,50.8,137c-5.11,1.23-6.58,8.57-2.57,11.85,3.62,3.34,8.54.75,12.69.17,29.65-6,62.34-4.69,88.8,11.29,2.91,2.19,7.49,2.37,10-.54A7,7,0,0,0,158.06,149C133.35,133.7,103.12,129.57,74.61,132.86Z" transform="translate(-0.12 -0.1)"/></svg>

<?xml version="1.0" encoding="UTF-8" ?>
<!DOCTYPE svg PUBLIC "-//W3C//DTD SVG 1.1//EN" "http://www.w3.org/Graphics/SVG/1.1/DTD/svg11.dtd">
<svg width="220pt" height="220pt" viewBox="0 0 220 220" version="1.1" xmlns="http://www.w3.org/2000/svg">
<g>
<path fill="#fff" opacity="1.00" d=" M 90.49 1.79 C 112.73 -2.10 136.19 0.71 156.61 10.45 C 180.41 21.53 199.91 41.46 210.49 65.48 C 221.90 90.97 222.95 120.88 213.44 147.13 C 204.96 170.83 188.04 191.38 166.41 204.27 C 149.76 214.21 130.43 219.88 110.99 219.78 C 83.53 220.37 56.15 209.67 35.96 191.13 C 17.65 174.54 5.24 151.58 1.43 127.16 C -2.08 104.41 1.48 80.55 12.10 60.07 C 27.29 29.86 57.17 7.61 90.49 1.79 M 83.30 58.35 C 69.26 59.03 55.20 60.86 41.69 64.85 C 38.65 65.62 35.98 67.76 34.77 70.69 C 32.19 76.07 35.36 83.16 41.08 84.82 C 44.97 86.22 48.85 84.26 52.62 83.41 C 67.44 79.76 82.78 78.61 98.00 78.79 C 122.45 79.54 147.34 83.49 169.40 94.51 C 173.58 96.51 177.77 100.22 182.74 98.74 C 189.01 97.52 192.56 89.87 189.75 84.21 C 187.30 79.22 181.49 77.59 176.98 75.04 C 147.93 61.31 115.16 57.18 83.30 58.35 M 78.40 96.47 C 67.90 97.32 57.44 99.13 47.36 102.22 C 43.63 103.27 40.99 107.13 41.38 110.99 C 41.38 116.21 47.08 120.41 52.07 118.89 C 60.52 116.40 69.19 114.69 77.97 113.93 C 104.30 111.70 131.51 115.88 155.25 127.77 C 159.91 129.96 164.64 134.72 170.16 132.12 C 176.38 129.68 177.04 120.13 171.26 116.83 C 143.61 100.18 110.35 94.12 78.40 96.47 M 74.61 132.86 C 66.60 133.80 58.62 135.08 50.80 137.00 C 45.69 138.23 44.22 145.57 48.23 148.85 C 51.85 152.19 56.77 149.60 60.92 149.02 C 90.57 143.02 123.26 144.33 149.72 160.31 C 152.63 162.50 157.21 162.68 159.70 159.77 C 162.78 156.74 161.90 150.99 158.06 149.00 C 133.35 133.70 103.12 129.57 74.61 132.86 Z" />
</g>
</svg>
